X: 15377
T: Glasgow's Passion For Fashion
R: jig
M: 6/8
K: Gmajor
D|BcB BAG|Bcd g2 d|efg dBG|A3 D3|
BcB BAG|Bcd g2 d|ege faf|g3- g2:|
d|b3 agf|gfe d2 B|c>de dBG|A3 A2
g/a/|b3 agf|gfe d2 B|ege faf|g3- g2
g/a/|b3 agf|gfe d2 B|c>de dBG|A3 A2
d/c/|BcB BAG|Bcd g2 d|ege faf|g3- g2||

